X:261
T:L'Inconnu de Limoise
M:9/8
K:G
D G2 A|B3 -B2 G c2 A|B3 -B2 B c2 d|c3 -c2 B A2 G|D3 -D2 D G2 A|
B3 -B2 G c2 A|B3 -B2 B c2 d|c3 -c2 B A2 G|A3 -A2||
B c2 d|e3 g2 f e2 f|d3 -d2 c B2 A|G2 F G2 B A2 G|
D6 G2 F|E3 -E2 F G2 A|G3 F3 E3|F3 -F2 G A2 B|A3 -A2||
